svg/furkot/icomoon/lock.svg

<svg height="512" viewBox="0 0 512 512" width="512"><path d="m416 224h-32v-96c0-70.692-57.308-128-128-128s-128 57.308-128 128v96h-32c-17.6 0-32 14.4-32 32v224c0 17.6 14.4 32 32 32h320c17.6 0 32-14.4 32-32v-224c0-17.6-14.4-32-32-32zm-160 192c-17.673 0-32-14.327-32-32s14.327-32 32-32 32 14.327 32 32-14.327 32-32 32zm64-192h-128v-96c0-35.29 28.71-64 64-64s64 28.71 64 64z"/></svg>

<svg width="512" height="512" viewBox="0 0 512 512" data-tags="lock, secure, private, encrypted" style="margin-left:8px;margin-top:8px"><path d="M 416.00,224.00l-32.00,0.00 l0.00-96.00 C 384.00,57.308, 326.692,0.00, 256.00,0.00c-70.692,0.00-128.00,57.308-128.00,128.00l0.00,96.00 L 96.00,224.00 c-17.60,0.00-32.00,14.40-32.00,32.00l0.00,224.00	c0.00,17.60, 14.40,32.00, 32.00,32.00l 320.00,0.00 c 17.60,0.00, 32.00-14.40, 32.00-32.00L 448.00,256.00 C 448.00,238.40, 433.60,224.00, 416.00,224.00z M 256.00,416.00c-17.673,0.00-32.00-14.327-32.00-32.00	s 14.327-32.00, 32.00-32.00s 32.00,14.327, 32.00,32.00S 273.673,416.00, 256.00,416.00z M 320.00,224.00L 192.00,224.00 l0.00-96.00 c0.00-35.29, 28.71-64.00, 64.00-64.00s 64.00,28.71, 64.00,64.00L 320.00,224.00 z"/></svg>
